X:5075
T:Farewell to Whiskey
S:unknown, photocopy
M:2/4
I:speed 350
K:G
I:part 1
|:GE | D2G2 B2AG | A2E2 E3G | D2G2 B2AG | d2B2B3d | 
e2g2 d2B2 | cBAG A2B2 | D2G2 BAGA | B2G2G2:|
|:Bc | d2B2 g2B2 | cBAG A2Bc | d2B2 g2d2 | e2g2 g3d | 
e2g2 d2B2 | cBAG A2B2 | D2G2 BAGA | B2G2G2:|
I:final
|:z2 | B,2B,2 D2CB, | C2C2C3C | B,2D2 G2FE | D2D2D3B |
c4 B2G2 | AGFE D4 | B,2D2 DCB,C | D2B,2B,2:|
|:GA | B2G2 B2G2 | AGFE F2GA | B2G2 B2B2 | c4 B3B | 
c4 B2G2 | AGFE D4 | B,2D2 DCB,C D2B,2B,2:|


